X:1
T:Blessèd Old Story of Love
T:Blessèd Old Story of Love
T:William James Kirkpatrick
T:Eliza Edmunds Hewitt, 1894
T:Public Domain Courtesy of the Cyber Hymnal™
T:Public Domain Courtesy of the Cyber Hymnal™
C:William James Kirkpatrick
Z:Public Domain
Z:Courtesy of the Cyber Hymnal™
%%score ( 1 2 ) ( 3 4 )
L:1/8
Q:1/4=90
M:6/8
K:Ab
V:1 treble 
V:2 treble 
V:3 bass 
V:4 bass 
V:1
 [Ec]>[Ec][Ec] [DB][DA][DF] | [CE][EA][EB] [Ec]3 | [EB]>[EB][EB] [EB][EA][EB] | [E-c]3 [Ee]2 z | %4
w: 1.~Tell the sweet sto- ry wher-|ev- er you go,|Bless- èd old sto- ry of|love! *|
w: 2.~Tell it to com- fort the|wea- ry and sad,|Tell it the wound- ed to|heal; *|
w: 3.~Look to the cross where He|died for our sin,|Look to the Lamb on the|throne; *|
w: 4.~Bright an- gels sweep- ing their|harp- strings of gold,|In ho- ly rap- ture a-|bove, *|
 [Ec]>[Ec][Ec] [DB][DA][DF] | [CE][EA][EB] [Ec]3 | [=DB]>[DB][DA] [Ec][Ec][_DB] | [CA]3- [CA]2 z || %8
w: Tell it un- til all your|heart is a- glow,|Filled with the power from a-|bove. *|
w: No o- ther mes- sage can|make us so glad,|None will such glo- ry re-|veal. *|
w: Then tell the sto- ry a|bro- ther to win,|Je- sus your ef- fort will|own. *|
w: List- en, while saints His sal-|va- tion un- fold—|Bless- èd old sto- ry of|love! *|
"^Refrain" [DF]>[DF][DF] [Fd][Fd][DF] | ([C-E]3 [CA]2) z | [Ec]>[Ec][Ec] [=DA][DG][DA] | %11
w: |||
w: Bless- èd old sto- ry of|love! *|Bless- èd old sto- ry of|
w: |||
w: |||
 B3- [EB]2 z | [Ec][Ec][Ec] [DB][DA][DF] | [CE][EA][EB] [Ec]3 | %14
w: |||
w: love! Christ|* came from Heav- en to|save you and me,|
w: |||
w: |||
 [EB]>[E=A][EB] [Ge]!fermata![Ge][EG] | A3- [EA]2 z |] %16
w: ||
w: Bless- èd old sto- ry of|love. *|
w: ||
w: ||
V:2
 x6 | x6 | x6 | x6 | x6 | x6 | x6 | x6 || x6 | x6 | x6 | E2 =D x3 | x6 | x6 | x6 | E>EF x3 |] %16
V:3
 [A,,A,]>[A,,A,][A,,E,] [A,,F,][A,,F,][A,,F,] | [A,,A,][C,A,][E,G,] A,3 | %2
w: ~ ~ ~ ~ ~ ~|~ ~ ~ ~|
 [E,G,]>[E,G,][E,G,] [E,G,][E,F,][E,G,] | A,3 [A,C]2 z | %4
w: ~ ~ ~ ~ ~ ~|~ *|
 [A,,A,]>[A,,A,][A,,E,] [A,,F,][A,,F,][A,,F,] | [A,,A,][C,A,][E,G,] A,3 | %6
w: * ~ ~ ~ ~ ~|~ ~ ~ ~|
 [F,A,]>[F,A,][F,A,] [E,A,][E,A,][E,G,] | [A,,A,]3- [A,,A,]2 z || %8
w: ~ ~ ~ ~ ~ ~|~ *|
 [D,A,]>[D,A,][D,A,] [D,A,][D,A,][D,A,] | [A,,A,]>[A,,A,][A,,A,] [A,,E,]2 z | %10
w: ~ ~ ~ ~ ~ old|sto- ry of love!|
 A,>A,A, [F,A,][F,B,][F,A,] | [E,G,]>[E,G,][B,,A,] [E,G,]2 z | %12
w: ~ ~ ~ ~ ~ old|sto- ry of love!|
 [A,,A,][A,,A,][A,,E,] [A,,F,][A,,F,][A,,F,] | [A,,A,][E,A,][E,G,] A,3 | %14
w: ~ ~ ~ ~ ~ ~|~ ~ ~ ~|
 [E,G,]>[E,^F,][E,G,] [E,B,]!fermata![E,B,][E,D] | C>CD [A,,A,C]2 z |] %16
w: ~ ~ ~ ~ ~ old|sto- ry of love|
V:4
 x6 | x3 A,3 | x6 | A,3- x3 | x6 | x3 A,3 | x6 | x6 || x6 | x6 | A,>A,A, x3 | x6 | x6 | x3 A,3 | %14
 x6 | [A,,A,]3- x3 |] %16

